packages/core/src/svgs/tokens/mono/BLID.svg

<svg width="24" height="24" viewBox="0 0 24 24" fill="none" xmlns="http://www.w3.org/2000/svg">
<path d="M6.59325 16.0022C5.96824 16.0372 5.93824 15.1222 6.04824 14.7171C6.62324 12.6772 7.22325 10.6421 7.84826 8.6171C8.03549 7.99653 8.37 7.43043 8.82328 6.96707C9.38827 6.39206 10.6133 6.24206 10.9533 7.15708C11.0783 7.49208 10.9134 8.24209 10.7833 8.69704L9.38325 13.3772C8.99828 14.6572 8.04826 15.9222 6.59325 16.0022ZM9.01828 8.34209L7.23325 14.2422C7.22265 14.2769 7.22169 14.3139 7.2305 14.3491C7.23931 14.3844 7.25754 14.4165 7.28326 14.4421C7.31122 14.4692 7.34599 14.4881 7.38385 14.4969C7.42171 14.5057 7.46125 14.5041 7.49825 14.4922L7.64326 14.4421C7.88326 14.3721 8.04327 14.2172 8.10827 13.9821L9.82332 8.25209C9.83312 8.21993 9.83499 8.18588 9.82892 8.15282C9.82286 8.11977 9.80886 8.08864 9.78832 8.06209C9.76779 8.03481 9.74142 8.01254 9.7112 7.99694C9.68087 7.98135 9.64739 7.97285 9.61332 7.97209H9.5383C9.26833 7.96708 9.09328 8.09209 9.01828 8.34209ZM16.3783 6.74207C16.4133 6.62207 16.4883 6.55707 16.6134 6.54206C17.3933 6.47707 19.3084 6.30206 18.9534 7.79208C18.6434 9.11215 18.2934 10.4271 17.9183 11.7322C17.6584 12.6221 17.1584 13.1922 16.4183 13.4422C15.8 13.6505 15.1747 13.8373 14.5434 14.0022C14.5353 14.0004 14.5277 13.997 14.5211 13.9923C14.5144 13.9875 14.5088 13.9814 14.5046 13.9744C14.5004 13.9674 14.4976 13.9596 14.4966 13.9514C14.4955 13.9433 14.4961 13.9351 14.4983 13.9272L16.3783 6.74207ZM16.8284 11.9472L17.8483 7.96708C17.857 7.93235 17.8583 7.89621 17.8523 7.86094C17.8462 7.82566 17.8331 7.79201 17.8133 7.76209C17.7937 7.73234 17.768 7.70712 17.7377 7.68815C17.7076 7.66918 17.6737 7.65687 17.6383 7.65208L17.5534 7.64208C17.3384 7.61708 17.2034 7.71208 17.1534 7.92208L15.9983 12.3521C15.9434 12.5521 16.0084 12.6122 16.1984 12.5372L16.3984 12.4521C16.6184 12.3622 16.7633 12.1922 16.8234 11.9521L16.8284 11.9472ZM20.5184 8.82211L21.1884 8.74207C21.2021 8.73986 21.216 8.74102 21.229 8.74534C21.2421 8.74966 21.2539 8.75713 21.2635 8.76704C21.2735 8.78209 21.2834 8.79213 21.2834 8.80706V8.85209L21.1434 9.48712C21.1434 9.50707 21.1335 9.52212 21.1184 9.53705C21.1044 9.54907 21.0868 9.55607 21.0684 9.55712L20.2384 9.68709C20.2194 9.68954 20.2018 9.6984 20.1885 9.71205C20.1777 9.725 20.1707 9.74052 20.1684 9.75709L19.8385 11.1471C19.8353 11.1622 19.836 11.1779 19.8405 11.1927C19.8448 11.2075 19.8527 11.221 19.8634 11.2321C19.8739 11.2437 19.8874 11.2522 19.9024 11.2566C19.9175 11.2609 19.9333 11.2612 19.9484 11.2571L20.8384 11.0271C20.8528 11.024 20.8677 11.0247 20.8817 11.0291C20.8957 11.0334 20.9084 11.0414 20.9185 11.0521C20.9295 11.063 20.9377 11.0765 20.9422 11.0913C20.9465 11.1062 20.9469 11.122 20.9434 11.1372L20.7934 11.8022C20.7934 11.8221 20.7835 11.8321 20.7734 11.8471C20.7627 11.8591 20.7488 11.8677 20.7334 11.8722L18.6084 12.4972C18.5937 12.5018 18.5781 12.5024 18.5632 12.4989C18.5481 12.4954 18.5345 12.4878 18.5234 12.4771C18.5123 12.4653 18.5045 12.4507 18.501 12.4349C18.4975 12.4191 18.4983 12.4025 18.5034 12.3871L19.9284 6.57207C19.9326 6.55253 19.9431 6.53495 19.9584 6.52207C19.9725 6.51015 19.99 6.50314 20.0085 6.50207H21.9084C21.922 6.50187 21.9356 6.50494 21.9477 6.51103C21.9598 6.51712 21.9705 6.52606 21.9784 6.53707C21.9871 6.54729 21.9934 6.55932 21.9969 6.5723C22.0004 6.58528 22.0009 6.59887 21.9985 6.61206L21.8384 7.33208C21.8384 7.35208 21.8235 7.37207 21.8084 7.38207C21.7944 7.39398 21.7768 7.40101 21.7585 7.40208L20.7835 7.43708C20.765 7.43816 20.7475 7.44517 20.7334 7.45708C20.7181 7.46996 20.7076 7.48754 20.7034 7.50708L20.4234 8.70707C20.4197 8.72177 20.4196 8.73729 20.4231 8.75199C20.4266 8.76681 20.4336 8.78057 20.4434 8.79213L20.4784 8.81709H20.5184V8.82211ZM5.96324 11.6121C6.16824 11.7471 6.25324 11.9122 6.22325 12.1122C5.97824 13.6671 5.55323 14.9772 4.95323 16.0322C4.41322 16.9722 3.0882 17.2323 2.13319 17.4972C2.11535 17.5014 2.09674 17.5008 2.07919 17.4956C2.06166 17.4902 2.04579 17.4805 2.03319 17.4672C2.01948 17.4538 2.00949 17.4371 2.00423 17.4187C1.99897 17.4003 1.99861 17.3808 2.00318 17.3622L5.20323 6.65207C5.21823 6.60207 5.24823 6.57706 5.29823 6.56706C6.00324 6.47206 6.59825 6.48207 7.07825 6.59207C8.03826 6.82207 7.07825 9.36205 6.82825 10.1571C6.65824 10.7071 6.36824 11.1571 5.95823 11.4971C5.90824 11.5421 5.90824 11.5771 5.96324 11.6121ZM5.03323 10.7371C5.02097 10.7785 5.02321 10.823 5.03958 10.863C5.05593 10.9029 5.08544 10.9361 5.12323 10.9571C5.16118 10.9778 5.2053 10.9841 5.24754 10.9749C5.28976 10.9658 5.32728 10.9417 5.35323 10.9071L5.71323 10.4671C5.72916 10.448 5.74106 10.4259 5.74823 10.4021L6.30324 8.42709C6.31481 8.38816 6.31324 8.3465 6.29878 8.30855C6.28432 8.2706 6.25778 8.23845 6.22325 8.21709C6.2004 8.2033 6.17478 8.19476 6.14824 8.19209L5.93324 8.17209C5.89034 8.16905 5.84777 8.18146 5.81324 8.20709C5.77926 8.23155 5.75458 8.26679 5.74324 8.30709L5.03323 10.7371ZM3.85821 15.5022L4.07321 15.4022C4.25821 15.3022 4.37822 15.1622 4.43822 14.9621L5.05823 12.8222C5.06772 12.7884 5.0695 12.7528 5.06344 12.7181C5.05738 12.6836 5.04364 12.6507 5.02323 12.6221C5.00278 12.5949 4.9764 12.5726 4.94609 12.557C4.91577 12.5414 4.88231 12.5329 4.84823 12.5322H4.77322C4.69467 12.5284 4.61717 12.5514 4.55322 12.5971C4.48867 12.644 4.44124 12.7108 4.41821 12.7872L3.66821 15.3372C3.60821 15.5422 3.66821 15.5971 3.85821 15.5022ZM11.3883 13.3271L12.2683 13.0871H12.2883C12.2983 13.0871 12.3033 13.0972 12.3084 13.1022C12.3149 13.1074 12.3201 13.1143 12.3233 13.1221V13.1521L12.0383 14.3272C12.0359 14.3368 12.0307 14.3455 12.0233 14.3522C12.0176 14.3571 12.0107 14.3606 12.0033 14.3622L10.0533 15.0021H10.0333C10.0254 14.9992 10.0184 14.994 10.0133 14.9872C10.0059 14.9806 10.0007 14.9718 9.99833 14.9621V14.9372L12.0933 6.53707C12.0957 6.52743 12.1009 6.51873 12.1083 6.51207C12.1153 6.50594 12.1241 6.50241 12.1334 6.50207L12.9533 6.50706L12.9734 6.51207C12.9793 6.51594 12.9844 6.52105 12.9883 6.52707L12.9983 6.54707V6.57207L11.3334 13.2672V13.2921L11.3433 13.3171L11.3633 13.3271H11.3883ZM12.4983 14.1321L14.4983 6.57207C14.5084 6.53206 14.5434 6.50207 14.5834 6.50207H15.4134C15.4733 6.50207 15.5133 6.57706 15.4934 6.63207L13.5783 13.9022C13.5748 13.9169 13.5679 13.9305 13.5583 13.9422C13.5476 13.9541 13.5337 13.9627 13.5183 13.9672L12.6133 14.2572C12.5971 14.2625 12.5796 14.2625 12.5633 14.2572C12.5479 14.2528 12.534 14.2441 12.5234 14.2321C12.513 14.2191 12.5061 14.2035 12.5033 14.1872C12.4991 14.1708 12.4991 14.1536 12.5033 14.1372L12.4983 14.1321Z" fill="white"/>
</svg>

<svg xmlns="http://www.w3.org/2000/svg" width="24" height="24" fill="none" viewBox="0 0 24 24">
    <path fill="#fff" d="M6.593 16.002c-.625.035-.655-.88-.545-1.285a258 258 0 0 1 1.8-6.1 4 4 0 0 1 .975-1.65c.565-.575 1.79-.725 2.13.19.125.335-.04 1.085-.17 1.54l-1.4 4.68c-.385 1.28-1.335 2.545-2.79 2.625m2.425-7.66-1.785 5.9a.2.2 0 0 0 .15.255.2.2 0 0 0 .115-.005l.145-.05c.24-.07.4-.225.465-.46l1.715-5.73a.21.21 0 0 0-.035-.19.23.23 0 0 0-.175-.09h-.075q-.406-.006-.52.37m7.36-1.6a.255.255 0 0 1 .235-.2c.78-.065 2.695-.24 2.34 1.25-.31 1.32-.66 2.635-1.035 3.94q-.39 1.335-1.5 1.71a28 28 0 0 1-1.875.56.06.06 0 0 1-.038-.028.06.06 0 0 1-.006-.047zm.45 5.205 1.02-3.98a.26.26 0 0 0-.11-.279.3.3 0 0 0-.1-.036l-.085-.01q-.324-.036-.4.28l-1.155 4.43q-.084.299.2.185l.2-.085c.22-.09.365-.26.425-.5zm3.69-3.125.67-.08a.09.09 0 0 1 .076.025c.01.015.02.025.02.04v.045l-.14.635q-.001.029-.026.05a.1.1 0 0 1-.05.02l-.83.13a.1.1 0 0 0-.05.025.1.1 0 0 0-.02.045l-.33 1.39a.095.095 0 0 0 .064.11q.023.006.046 0l.89-.23a.09.09 0 0 1 .08.025q.018.016.024.04.007.022.001.045l-.15.665c0 .02-.01.03-.02.045a.1.1 0 0 1-.04.025l-2.125.625a.09.09 0 0 1-.085-.02.09.09 0 0 1-.02-.09l1.425-5.815a.1.1 0 0 1 .03-.05.1.1 0 0 1 .05-.02h1.9a.1.1 0 0 1 .07.035.1.1 0 0 1 .02.075l-.16.72c0 .02-.015.04-.03.05a.1.1 0 0 1-.05.02l-.974.035a.1.1 0 0 0-.05.02.1.1 0 0 0-.03.05l-.28 1.2a.1.1 0 0 0 .02.085l.034.025h.04zm-14.555 2.79q.306.201.26.5c-.245 1.555-.67 2.865-1.27 3.92-.54.94-1.865 1.2-2.82 1.465a.1.1 0 0 1-.1-.03.11.11 0 0 1-.03-.105l3.2-10.71c.015-.05.045-.075.095-.085q1.059-.141 1.78.025c.96.23 0 2.77-.25 3.565-.17.55-.46 1-.87 1.34-.05.045-.05.08.005.115m-.93-.875a.19.19 0 0 0 .09.22.18.18 0 0 0 .23-.05l.36-.44a.2.2 0 0 0 .035-.065l.555-1.975a.185.185 0 0 0-.08-.21.2.2 0 0 0-.075-.025l-.215-.02a.185.185 0 0 0-.19.135zm-1.175 4.765.215-.1a.7.7 0 0 0 .365-.44l.62-2.14a.24.24 0 0 0-.035-.2.23.23 0 0 0-.175-.09h-.075a.35.35 0 0 0-.22.065.37.37 0 0 0-.135.19l-.75 2.55c-.06.205 0 .26.19.165m7.53-2.175.88-.24h.02c.01 0 .015.01.02.015l.015.02v.03l-.285 1.175a.05.05 0 0 1-.035.035l-1.95.64h-.02a.04.04 0 0 1-.02-.015.05.05 0 0 1-.015-.025v-.025l2.095-8.4a.05.05 0 0 1 .015-.025.04.04 0 0 1 .025-.01l.82.005.02.005.015.015.01.02v.025l-1.665 6.695v.025l.01.025.02.01zm1.11.805 2-7.56a.09.09 0 0 1 .085-.07h.83c.06 0 .1.075.08.13l-1.915 7.27a.1.1 0 0 1-.02.04.1.1 0 0 1-.04.025l-.905.29a.1.1 0 0 1-.05 0 .1.1 0 0 1-.04-.025.1.1 0 0 1-.02-.045.1.1 0 0 1 0-.05z"/>
</svg>
